src/pos-icons/file-export-outline.svg

<svg height="24" viewBox="0 0 24 24" width="24" xmlns="http://www.w3.org/2000/svg"><path d="m14 2h-8c-1.1 0-2 .9-2 2v16c0 1.1.9 2 2 2h12c1.1 0 2-.9 2-2v-12zm4 18h-12v-16h7v5h5zm-2-9v7.1l-2.1-2.1-2.8 2.8-2.8-2.8 2.8-2.8-2.2-2.2z"/></svg>

<?xml version="1.0" encoding="UTF-8"?><!DOCTYPE svg PUBLIC "-//W3C//DTD SVG 1.1//EN" "http://www.w3.org/Graphics/SVG/1.1/DTD/svg11.dtd"><svg xmlns="http://www.w3.org/2000/svg" xmlns:xlink="http://www.w3.org/1999/xlink" version="1.1" id="mdi-file-export-outline" width="24" height="24" viewBox="0 0 24 24"><path d="M14 2H6C4.9 2 4 2.9 4 4V20C4 21.1 4.9 22 6 22H18C19.1 22 20 21.1 20 20V8L14 2M18 20H6V4H13V9H18V20M16 11V18.1L13.9 16L11.1 18.8L8.3 16L11.1 13.2L8.9 11H16Z" /></svg>
